X:150
T:Fred's Kitchen
M:6/8
L:1/8
C:Frederick E. Wilson copyright 2005
R:Jig
K:EDor
"Emi"B2 E G2 A|BAB GFE|G2 A BGE|"D"F3 FED|
"Emi"B2 E G2 A|BAB GFE|dcB "D"AFD|"Emi" (E3 E2) A:|:
"Emi"B2 e e2 f|g3 efg|B2 e efe|"D"(d3 d2) A|
"Emi"B2 e e2 f|"G"gzg "D"aga|"Emi"bab "D"afd|"Bmi"fed "Emi"e2 A:|
